app/assets/v2/images/kudos/blockchain_star.svg

<svg xmlns="http://www.w3.org/2000/svg" width="110.979" height="128.417" viewBox="0 0 110.979 128.417"><path fill="#122C60" d="M110.849 96.417l-55.426 32L0 96.417v-64l55.423-32 55.426 32z"/><path fill="none" stroke="#2497FF" stroke-miterlimit="10" d="M56.5 17.458l38.167 21.75"/><path fill="#1E243A" d="M101.923 38.139v53.14l-.009.01-1.42.809-6.281 3.62-2.719 1.571-.241.129-.129.05-.111.071-3.029 1.74-1.87 1.069-.04.03-3.25 1.88-.87.521-1.38.79-1.46.849-.181.09-.019.021-1.71.979-.96.561-4.62 2.67-.63.359-.061.03-3.5 2.031-4.04 2.33-.01.01-.429.25-7.08 4.08-7.57-4.371-.04-.03-2.071-1.189-5.36-3.111-.689-.389-5.09-2.95-.39-.22-.491-.28-.33-.201-1.849-1.059-.571-.33-1.71-.991-2.509-1.459-2.911-1.67-.089-.05-4.67-2.7-2.111-1.231-7.5-4.319v-53.14l14.33-8.27 1.991-1.161 4.929-2.83 1.58-.92.17-.089 1.66-.951 1.161-.669 1.54-.911.52-.299 2.279-1.301.69-.409 1.46-.83 5.721-3.3.46-.27 1.169-.68 4.9-2.831 1.44-.83 1.061.62 6.099 3.521.39.229 14.53 8.38 1.04.611 2.3 1.309.87.5 1.521.881 1.369.79.801.46.09.06 1.809 1.039 3.78 2.18.041.031v.009l.259.141.66.389 1.46.841 1.941 1.12.779.44.441.25 1.939 1.119z"/><path fill="none" stroke="#B0D3E4" stroke-width=".5" stroke-miterlimit="10" d="M96.923 41.263V88.82l-.008.009-1.271.724-5.621 3.24-2.434 1.406-.214.116-.117.044-.098.063-2.711 1.558-1.674.957-.036.026-2.908 1.683-.78.466-1.234.707-1.307.761-.162.08-.016.018-1.532.876-.858.502-4.135 2.39-.563.321-.055.027-3.132 1.818-3.616 2.085-.009.009-.384.223-6.336 3.652-6.774-3.912-.037-.027-1.853-1.064-4.796-2.784-.617-.348-4.555-2.641-.35-.196-.438-.251-.296-.179-1.655-.948-.51-.296-1.531-.886-2.246-1.306-2.604-1.495-.081-.044-4.179-2.417-1.889-1.101-6.712-3.866V41.263l12.825-7.401 1.781-1.038 4.412-2.533 1.414-.823.152-.081 1.486-.85 1.038-.599 1.378-.815.466-.269 2.04-1.163.617-.367 1.307-.742 5.119-2.954.412-.241 1.047-.609 4.385-2.533 1.288-.743.95.556 5.459 3.15.348.206 13.003 7.499.932.546 2.057 1.172.78.448 1.36.787 1.226.707.715.412.081.054 1.62.93 3.382 1.951.037.027v.009l.232.126.591.348 1.306.752 1.737 1.003.697.394.395.223 1.735 1.002z"/><path fill-rule="evenodd" clip-rule="evenodd" fill="#2497FF" d="M56.417 36.975l8.515 16.345 18.176 3.046-12.914 13.148 2.719 18.23-16.496-8.221-16.495 8.221 2.72-18.23-12.915-13.148 18.176-3.046z"/><g fill-rule="evenodd" clip-rule="evenodd"><path fill="#1E243A" d="M81.994 65.489l-25.5 25.5-25.5-25.5 18.589-18.591v1.81h13.5v-2.129z"/><path fill="#062842" d="M56.49 42.995l22.338 22.338L56.49 87.672 34.15 65.333z"/></g><radialGradient id="a" cx="57.416" cy="67.376" r="41.541" gradientUnits="userSpaceOnUse"><stop offset="0" stop-color="#334cff" stop-opacity=".5"/><stop offset="1" stop-color="#3b47ff" stop-opacity="0"/></radialGradient><circle fill-rule="evenodd" clip-rule="evenodd" fill="url(#a)" cx="57.417" cy="67.375" r="41.541"/><g fill-rule="evenodd" clip-rule="evenodd"><path fill="#00ADE5" d="M57.376 83.166h-1.577c-.812-.455-1.659-.844-2.291-1.58-.493-.575-1.068-1.081-1.604-1.621l-7.142-7.204 11.864-11.867c.03.006.061.008.092.006 1.581 1.597 3.151 3.205 4.748 4.787.852.843 1.635 1.76 2.586 2.501 1.424 1.608 2.982 3.082 4.532 4.565-.17.195-.327.403-.511.585-2.541 2.547-5.097 5.082-7.627 7.642-.899.911-1.798 1.805-3.07 2.186z"/><path fill="#123962" d="M56.626 60.894L44.762 72.761c-.976-.951-1.964-1.889-2.925-2.854-1.097-1.104-2.356-2.085-2.921-3.622V64.55c.473-1.23 1.38-2.123 2.3-3.016 1.169-1.134 2.304-2.302 3.461-3.447 1.547-1.53 3.102-3.051 4.652-4.576.195.21.384.427.586.63l6.711 6.753z"/><path fill="#789DB1" d="M57.376 47.666c1.129.346 1.988 1.072 2.786 1.915 1.259 1.328 2.559 2.616 3.842 3.922-.21.231-.413.471-.634.693-2.216 2.236-4.435 4.47-6.652 6.704a.354.354 0 0 1-.092-.006c-2.237-2.251-4.475-4.501-6.71-6.753-.203-.204-.391-.42-.586-.63 1.568-1.725 3.257-3.331 4.917-4.964.473-.466 1.12-.625 1.71-.879.472-.002.947-.002 1.419-.002z"/><path fill="#B0D3E4" d="M71.396 60.917c1.233 1.083 2.531 2.113 3.021 3.789v1.42c-.341 1.165-1.101 2.029-1.966 2.844-1.31 1.238-2.579 2.521-3.866 3.783-1.55-1.483-3.108-2.957-4.532-4.565.263-.256.525-.511.784-.769 2.187-2.166 4.373-4.334 6.559-6.502z"/><path fill="#2754BA" d="M71.396 60.917c-2.186 2.167-4.372 4.336-6.56 6.502-.259.258-.521.513-.784.769-.951-.741-1.734-1.658-2.586-2.501-1.597-1.583-3.167-3.19-4.748-4.787 2.218-2.234 4.437-4.468 6.652-6.704.221-.223.424-.462.634-.693 2.522 2.414 5.014 4.857 7.392 7.414z"/></g><path clip-rule="evenodd" fill="none" stroke="#2497FF" stroke-miterlimit="10" d="M56.582 42.981l22.363 22.363-22.363 22.363-22.363-22.363z"/><path fill="none" stroke="#2497FF" stroke-miterlimit="10" d="M58.495 105.071l30.838-17.738m.056-44.365L57.682 24.679m33.547 21.978V82.91M54.11 24.679L22.403 42.968m-.875 43.689l31.707 18.289M20.563 82.593V48.458"/><path fill="#2497FF" d="M63.083 15.729v33.64l-6.589-7.44-6.911 7.8v-34.48l4.9-2.831 1.44-.83 1.061.62z"/><path fill-rule="evenodd" clip-rule="evenodd" fill="#83E2FF" d="M53.99 42.271l-2.407 2V18.583h2.407z"/><circle fill-rule="evenodd" clip-rule="evenodd" fill="#83E2FF" cx="52.771" cy="18.647" r="1.187"/><path fill-rule="evenodd" clip-rule="evenodd" fill="#83E2FF" d="M55.959 40.854l-.834.563V18.083h.834z"/><path fill="none" stroke="#2497FF" stroke-miterlimit="10" d="M67.521 95.458l23.667-14.791m-3.917 2.76l9.5 5.094m-.292-.25l3.167 4.292M77 89.458v-22m.333 5.167h13.584m-14.25 6.75h9.5m-4.334.333v6.969m4.417-13.885v-31.75m.333 27.666h-8.416M62 43.875h23.667M75.25 55.958V44.375M39.677 71.427L26.542 84.583m7.958-8.062v17.458m.417-2.687H63.13m-7.213.5v25.291m-.271-17.75H43.833M30.708 80.271l-9.843-9.844m5.031-29.594v34.625m.437-26.562h23.875m-15.437-.313V35.708m.562 4.75h10.875m-2.375-.562v-9.438m.188 2.063h3.937m-3.937 3.5h1.75m21.437 8V32.458m-.125 7.438h9.063m-4.125-.313v-6.625m-8.938 48.625v21.25m4.438-7.375h-4.063M36.75 68.042H26.417m59.791-21.584l10.625-5.062m-.156.5v-6.344M26.833 84.583H15m4.042.125v3.584m.458.104l-4.333.021m.229-.063l-5.146 2.813m15.625-42.292L14.75 41.458m-4.875.209h5"/><g><path opacity=".13" d="M9.826 38.141v53.121l46.072 26.559 46.074-26.559V38.141L55.898 11.58 9.826 38.141zm90.281 1.08v50.971l-44.209 25.489-44.211-25.489V39.221l44.211-25.489 44.209 25.489z"/></g></svg>

<svg xmlns="http://www.w3.org/2000/svg" width="110.979" height="128.417" viewBox="0 0 110.979 128.417"><path fill="#122C60" d="M110.849 96.417l-55.426 32L0 96.417v-64l55.423-32 55.426 32z"/><path fill="none" stroke="#2497FF" stroke-miterlimit="10" d="M56.5 17.458l38.167 21.75"/><path fill="#1E243A" d="M101.923 38.139v53.14l-.009.01-1.42.809-6.281 3.62-2.719 1.571-.241.129-.129.05-.111.071-3.029 1.74-1.87 1.069-.04.03-3.25 1.88-.87.521-1.38.79-1.46.849-.181.09-.019.021-1.71.979-.96.561-4.62 2.67-.63.359-.061.03-3.5 2.031-4.04 2.33-.01.01-.429.25-7.08 4.08-7.57-4.371-.04-.03-2.071-1.189-5.36-3.111-.689-.389-5.09-2.95-.39-.22-.491-.28-.33-.201-1.849-1.059-.571-.33-1.71-.991-2.509-1.459-2.911-1.67-.089-.05-4.67-2.7-2.111-1.231-7.5-4.319v-53.14l14.33-8.27 1.991-1.161 4.929-2.83 1.58-.92.17-.089 1.66-.951 1.161-.669 1.54-.911.52-.299 2.279-1.301.69-.409 1.46-.83 5.721-3.3.46-.27 1.169-.68 4.9-2.831 1.44-.83 1.061.62 6.099 3.521.39.229 14.53 8.38 1.04.611 2.3 1.309.87.5 1.521.881 1.369.79.801.46.09.06 1.809 1.039 3.78 2.18.041.031v.009l.259.141.66.389 1.46.841 1.941 1.12.779.44.441.25 1.939 1.119z"/><path fill="none" stroke="#B0D3E4" stroke-width=".5" stroke-miterlimit="10" d="M96.923 41.263V88.82l-.008.009-1.271.724-5.621 3.24-2.434 1.406-.214.116-.117.044-.098.063-2.711 1.558-1.674.957-.036.026-2.908 1.683-.78.466-1.234.707-1.307.761-.162.08-.016.018-1.532.876-.858.502-4.135 2.39-.563.321-.055.027-3.132 1.818-3.616 2.085-.009.009-.384.223-6.336 3.652-6.774-3.912-.037-.027-1.853-1.064-4.796-2.784-.617-.348-4.555-2.641-.35-.196-.438-.251-.296-.179-1.655-.948-.51-.296-1.531-.886-2.246-1.306-2.604-1.495-.081-.044-4.179-2.417-1.889-1.101-6.712-3.866V41.263l12.825-7.401 1.781-1.038 4.412-2.533 1.414-.823.152-.081 1.486-.85 1.038-.599 1.378-.815.466-.269 2.04-1.163.617-.367 1.307-.742 5.119-2.954.412-.241 1.047-.609 4.385-2.533 1.288-.743.95.556 5.459 3.15.348.206 13.003 7.499.932.546 2.057 1.172.78.448 1.36.787 1.226.707.715.412.081.054 1.62.93 3.382 1.951.037.027v.009l.232.126.591.348 1.306.752 1.737 1.003.697.394.395.223 1.735 1.002z"/><path fill-rule="evenodd" clip-rule="evenodd" fill="#2497FF" d="M56.417 36.975l8.515 16.345 18.176 3.046-12.914 13.148 2.719 18.23-16.496-8.221-16.495 8.221 2.72-18.23-12.915-13.148 18.176-3.046z"/><g fill-rule="evenodd" clip-rule="evenodd"><path fill="#1E243A" d="M81.994 65.489l-25.5 25.5-25.5-25.5 18.589-18.591v1.81h13.5v-2.129z"/><path fill="#062842" d="M56.49 42.995l22.338 22.338L56.49 87.672 34.15 65.333z"/></g><radialGradient id="a" cx="57.416" cy="67.376" r="41.541" gradientUnits="userSpaceOnUse"><stop offset="0" stop-color="#334cff" stop-opacity=".5"/><stop offset="1" stop-color="#3b47ff" stop-opacity="0"/></radialGradient><circle fill-rule="evenodd" clip-rule="evenodd" fill="url(#a)" cx="57.417" cy="67.375" r="41.541"/><g><g fill-rule="evenodd" clip-rule="evenodd"><path fill="#00ADE5" d="M57.376 83.166h-1.577c-.812-.455-1.659-.844-2.291-1.58-.493-.575-1.068-1.081-1.604-1.621l-7.142-7.204 11.864-11.867c.03.006.061.008.092.006 1.581 1.597 3.151 3.205 4.748 4.787.852.843 1.635 1.76 2.586 2.501 1.424 1.608 2.982 3.082 4.532 4.565-.17.195-.327.403-.511.585-2.541 2.547-5.097 5.082-7.627 7.642-.899.911-1.798 1.805-3.07 2.186z"/><path fill="#123962" d="M56.626 60.894L44.762 72.761c-.976-.951-1.964-1.889-2.925-2.854-1.097-1.104-2.356-2.085-2.921-3.622V64.55c.473-1.23 1.38-2.123 2.3-3.016 1.169-1.134 2.304-2.302 3.461-3.447 1.547-1.53 3.102-3.051 4.652-4.576.195.21.384.427.586.63l6.711 6.753z"/><path fill="#789DB1" d="M57.376 47.666c1.129.346 1.988 1.072 2.786 1.915 1.259 1.328 2.559 2.616 3.842 3.922-.21.231-.413.471-.634.693-2.216 2.236-4.435 4.47-6.652 6.704a.354.354 0 0 1-.092-.006c-2.237-2.251-4.475-4.501-6.71-6.753-.203-.204-.391-.42-.586-.63 1.568-1.725 3.257-3.331 4.917-4.964.473-.466 1.12-.625 1.71-.879.472-.002.947-.002 1.419-.002z"/><path fill="#B0D3E4" d="M71.396 60.917c1.233 1.083 2.531 2.113 3.021 3.789v1.42c-.341 1.165-1.101 2.029-1.966 2.844-1.31 1.238-2.579 2.521-3.866 3.783-1.55-1.483-3.108-2.957-4.532-4.565.263-.256.525-.511.784-.769 2.187-2.166 4.373-4.334 6.559-6.502z"/><path fill="#2754BA" d="M71.396 60.917c-2.186 2.167-4.372 4.336-6.56 6.502-.259.258-.521.513-.784.769-.951-.741-1.734-1.658-2.586-2.501-1.597-1.583-3.167-3.19-4.748-4.787 2.218-2.234 4.437-4.468 6.652-6.704.221-.223.424-.462.634-.693 2.522 2.414 5.014 4.857 7.392 7.414z"/></g><path clip-rule="evenodd" fill="none" stroke="#2497FF" stroke-miterlimit="10" d="M56.582 42.981l22.363 22.363-22.363 22.363-22.363-22.363z" stroke-width=".99999"/><path fill="none" stroke="#2497FF" stroke-miterlimit="10" d="M58.495 105.071l30.838-17.738M89.389 42.968L57.682 24.679M91.229 46.657V82.91M54.11 24.679L22.403 42.968M21.528 86.657l31.707 18.289M20.563 82.593V48.458"/><path fill="#2497FF" d="M63.083 15.729v33.64l-6.589-7.44-6.911 7.8v-34.48l4.9-2.831 1.44-.83 1.061.62z"/><path fill-rule="evenodd" clip-rule="evenodd" fill="#83E2FF" d="M53.99 42.271l-2.407 2V18.583h2.407z"/><circle fill-rule="evenodd" clip-rule="evenodd" fill="#83E2FF" cx="52.771" cy="18.647" r="1.187"/><path fill-rule="evenodd" clip-rule="evenodd" fill="#83E2FF" d="M55.959 40.854l-.834.563V18.083h.834z"/><path fill="none" stroke="#2497FF" stroke-miterlimit="10" d="M67.521 95.458l23.667-14.791M87.271 83.427l9.5 5.094M96.479 88.271l3.167 4.292M77 89.458v-22M77.333 72.625h13.584M76.667 79.375h9.5M81.833 79.708v6.969M86.25 72.792v-31.75M86.583 68.708h-8.416M62 43.875h23.667M75.25 55.958V44.375M39.677 71.427L26.542 84.583M34.5 76.521v17.458M34.917 91.292H63.13M55.917 91.792v25.291M55.646 99.333H43.833M30.708 80.271l-9.843-9.844M25.896 40.833v34.625M26.333 48.896h23.875M34.771 48.583V35.708M35.333 40.458h10.875M43.833 39.896v-9.438M44.021 32.521h3.937M44.021 36.021h1.75M67.208 44.021V32.458M67.083 39.896h9.063M72.021 39.583v-6.625M63.083 81.583v21.25M67.521 95.458h-4.063M36.75 68.042H26.417M86.208 46.458l10.625-5.062M96.677 41.896v-6.344M26.833 84.583H15M19.042 84.708v3.584M19.5 88.396l-4.333.021M15.396 88.354l-5.146 2.813M25.875 48.875L14.75 41.458M9.875 41.667h5"/></g><g><path opacity=".13" d="M9.826 38.141v53.121l46.072 26.559 46.074-26.559V38.141L55.898 11.58 9.826 38.141zm90.281 1.08v50.971l-44.209 25.489-44.211-25.489V39.221l44.211-25.489 44.209 25.489z"/></g></svg>
